X:11
T:No.111 The Low Highland
M:4/4
L:1/8
C:highland
K:G
A,2A,2 E>A, B,>A,|G,>A, B,>G D<G, B,>G,|
A,2A,2 E>A, B,>A,|G,>A, B,>G, (3A,B,A, G,>B,|
A,2A,2 E>A, B,>A,|G,>A, B,>G D<G, B,>G,|
A,2A,2 E>D B,>A,|G,>A, B,>G, (3A,B,A, G,>B,||
A,>b a>g e>d e>f|g2g2 d>g B>G|
A>b a>g e>d e>f|(3gfe d>B (3ABA ^G>B|
A>b a>g e>d e>f|g2g2 d>g f>g|
(3agf g>e f>d A>F|(3GFE D>B, A,2G,>B,||
